X:176
T:Quadrilles des Montagnards Laurentiens
S:David Boulanger - Vices et Versa
Z:robin.beech@mcgill.ca
M:4/4
L:1/8
K:D
f2f&gt;f ff2A | Bcde dcBA | g2g&gt;g gg2A | Bcde dcBA | 
f2f&gt;f ff2A | Bcdc e2B2 | e&gt;dcB BAa&gt;f | gecA d/f/e/c/d2 ::
e/e/c/e/ ac e3c/d/ | cBBB/c/ BAAe/f/ | e/e/c/e/ ac e3c/d/ | cBBB/c/ BAAe/f/ | 
e/e/c/e/ ac e3c/d/ | cBBB/c/ BAAe/f/ | e/e/c/e/ ac e3c/d/ | cBBB/c/ | BAA&gt;A B/c/d/e/ |]

